X: 1
T: K\"aki
O: Trad Finland
Z: John Chambers <jc@trillian.mit.edu>
M: 2/4
L: 1/16
K: Gm
|: "Gm"BAGA BAGB | "Bb"d3d  d2cB | "D7"A2AB ccdc | "Gm"B2G2 G4 :|
|: "Bb"d2Bd ffed | "F7"c2cd e2dc | "D7"A2AB c2dc | "Gm"B2G2 G4 :|
